!!!COM:      Bach, Johann Sebastian
!!!CDT:      1685/03/31/-1750/07/28/
!!!OPR@@GER: Das wohltemperirte Clavier
!!!OVM@@GER: Band I
!!!OPR@ENG:  Well-Tempered Clavier
!!!OVM@ENG:  Book I
!!!OTL:      Fugue
!!!OKY:      C-sharp major
!!!ONM:      no. 3
!!!SCT:      BWV 848
!!!OMV:      2
**kern	**kern	**kern	**kern
*clefF4	*clefG2	*	*clefG2
*k[f#c#g#d#a#e#b#]	*k[f#c#g#d#a#e#b#]	*	*k[f#c#g#d#a#e#b#]
*C#:	*C#:	*	*C#:
*M4/4	*M4/4	*	*M4/4
*met(c)	*met(c)	*	*met(c)
*MM88	*MM88	*MM88	*MM88
=1-	=1-	=1-	=1-
1r	1r	1ryy	4r
.	.	.	8r
.	.	.	8g#
.	.	.	16a#
.	.	.	16g#
.	.	.	16f#
.	.	.	16g#
.	.	.	8ee#
.	.	.	8cc#
=2	=2	=2	=2
1r	1r	1ryy	8g#
.	.	.	16f#
.	.	.	16e#
.	.	.	8f#
.	.	.	8dd#
.	.	.	8e#
.	.	.	8cc#
.	.	.	8d#
.	.	.	8b#
=3	=3	=3	=3
1r	4r	1ryy	8c#
.	.	.	16cc#
.	.	.	16b#
.	8r	.	16cc#
.	.	.	16dd#
.	8c#	.	16ee#
.	.	.	16ff#
.	16e#	.	16gg#
.	16d#	.	16ff##
.	16c#	.	16ee#
.	16d#	.	16ff##
.	8b#	.	16gg#
.	.	.	16ff#X
.	8g#	.	16ee#
.	.	.	16dd#
=4	=4	=4	=4
1r	8d#	1ryy	[4ee#
.	16c#	.	.
.	16B#	.	.
.	8c#	.	16ee#]
.	.	.	16dd#
.	8a#	.	16cc#
.	.	.	16ee#
.	8B#	.	16dd#
.	.	.	16cc#
.	8g#	.	16b#
.	.	.	16dd#
.	8A#	.	16cc#
.	.	.	16b#
.	8f##	.	16cc#
.	.	.	16a#
=5	=5	=5	=5
.	.	.	16a#Q
4r	8G#	1ryy	8b#
.	16g#	.	8dd#
.	16f##	.	.
8r	16g#	.	2ff#
.	16a#	.	.
8G#	16b#	.	.
.	16g#	.	.
16A#	16cc#	.	.
16G#	16b#	.	.
16F#	16a#	.	.
16G#	16b#	.	.
8e#	16cc#	.	[4ee#
.	16b#	.	.
8c#	16a#	.	.
.	16g#	.	.
=6	=6	=6	=6
8G#	[4a#	1ryy	4ee#]
16F#	.	.	.
16E#	.	.	.
8F#	16a#]	.	[4dd#
.	16g#	.	.
8d#	16f#	.	.
.	16a#	.	.
8E#	16g#	.	8dd#]
.	16f#	.	.
8c#	16e#	.	8cc#
.	16g#	.	.
8D#	16f#	.	8b#
.	16e#	.	.
8B#	16f#	.	[8dd#
.	16d#	.	.
=7	=7	=7	=7
8C#	4e#	1ryy	8dd#]
16c#	.	.	8g#
16B#	.	.	.
16c#	8r	.	[4ee#
16d#	.	.	.
16e#	8g#	.	.
16c#	.	.	.
16A#	4.cc#	.	8ee#]
16B#	.	.	.
16c#	.	.	16ee#
16A#	.	.	16cc#
16F##	.	.	[4a#
16G#	.	.	.
16A#	16cc#	.	.
16F##	16a#	.	.
=8	=8	=8	=8
8BB#	4d#	1ryy	8a#]
16B#	.	.	8a#
16A#	.	.	.
16B#	8r	.	[4dd#
16c#	.	.	.
16d#	8f##	.	.
16B#	.	.	.
16G#	4.b#	.	8dd#]
16A#	.	.	.
16B#	.	.	16dd#
16G#	.	.	16b#
16E#	.	.	[4g#
16F##	.	.	.
16G#	16b#	.	.
16E#	16g#	.	.
=9	=9	=9	=9
8AA#	4c#	1ryy	8g#]
16A#	.	.	8g#
16G#	.	.	.
16A#	8r	.	[4cc#
16B#	.	.	.
16c#	8e#	.	.
16A#	.	.	.
16F##	[4a#	.	16cc#]
16G#	.	.	16b#
16A#	.	.	16cc#
16F##	.	.	16a#
16D#	16a#]	.	[4aa#
16E#	16cc#	.	.
16F##X	16dd#	.	.
16D#	16a#	.	.
=10	=10	=10	=10
8GG#	4b#	1ryy	16aa#]
.	.	.	16gg#
16G#	.	.	16ff##
16A#	.	.	16aa#
8B#	8r	.	16gg#
.	.	.	16dd#
8G#	[8g#	.	16ee#
.	.	.	16ff#X
4c#	16g#]	.	16ee#
.	16f##	.	16dd#
.	16e#	.	16cc#
.	16f##	.	16dd#
4B#	16g#	.	8bb#
.	16f#X	.	.
.	16e#	.	8gg#
.	16d#	.	.
=11	=11	=11	=11
8A#	[4e#	1ryy	8dd#
8G#	.	.	16cc#
.	.	.	16b#
4F##	16e#]	.	8cc#
.	16d#	.	.
.	16c#	.	8aa#
.	16e#	.	.
4G#	16d#	.	8b#
.	16c#	.	.
.	16B#	.	8gg#
.	16d#	.	.
4D#	16c#	.	8a#
.	16B#	.	.
.	16c#	.	8ff##
.	16A#	.	.
=12	=12	=12	=12
*	*staff:7	*	*
*	*clefF4	*	*
4G#	8B#	1ryy	16g#
.	.	.	16a#
.	8d#	.	16b#
.	.	.	16cc#
8r	4g#	.	16b#
.	.	.	16a#
16d#	.	.	16g#
16B#	.	.	16b#
4G#	8r	.	16ee#
.	.	.	16dd#
.	16Bn	.	16cc##
.	16G#	.	16ee#
8r	4E#	.	16gg#
.	.	.	16ff#
16G#	.	.	16ee#
16E#	.	.	16gg#
=13	=13	=13	=13
.	.	.	16gg#Q
.	.	.	16aa#Q
4C##	8r	1ryy	8bbn
.	16E#	.	16aa#
.	16G#	.	16gg#
8r	4Bn	.	16ff#
.	.	.	16ee#
8E#	.	.	16dd#
.	.	.	16cc##
8F#	8A#	.	16dd#
.	.	.	16ff#
8G#	8Bn	.	16ee#
.	.	.	16dd#
8A#	8A#	.	16cc##
.	.	.	16ee#
8AA#	8C##X	.	16a#
.	.	.	16g#
=14	=14	=14	=14
4DD#	4D#	1ryy	16f#
.	.	.	16e#
.	.	.	16d#
.	.	.	16c##
8r	4r	.	16d#
.	.	.	16e#
8D#	.	.	16f#
.	.	.	16g#
16F#	2r	.	16a#
16E#	.	.	16g#
16D#	.	.	16f#
16E#	.	.	16g#
8c#	.	.	16a#
.	.	.	16g#
8A#	.	.	16f#
.	.	.	16e#
=15	=15	=15	=15
8E#	1ryy	1ryy	[4f#
16D#	.	.	.
16C#	.	.	.
8D#	.	.	16f#]
.	.	.	16e#
8B#	.	.	16d#
.	.	.	16f#
8C#	.	.	16e#
.	.	.	16d#
8A#	.	.	16c#
.	.	.	16e#
8BB#	.	.	16d#
.	.	.	16c#
8G##	.	.	16d#
.	.	.	16B#
=16	=16	=16	=16
*	*clefG2	*	*
8AA#	4r	1ryy	16c#
.	.	.	16e#
16A#	.	.	16f#
16G##	.	.	16e#
16A#	8r	.	[4cc#
16B#	.	.	.
16c#	8e#	.	.
16A#	.	.	.
16F##	[4a#	.	16cc#]
16G#X	.	.	16b#
16A#	.	.	16cc#
16F##	.	.	16a#
16D#	16a#]	.	[4aa#
16E#	16cc#	.	.
16F##X	16dd#	.	.
16D#	16a#	.	.
=17	=17	=17	=17
8GG#	8b#	1ryy	16aa#]
.	.	.	16d#
16G#	8r	.	16e#
16F##	.	.	16d#
16G#	8r	.	[4b#
16A#	.	.	.
16B#	8d#	.	.
16G#	.	.	.
16E#	[4g#	.	16b#]
16F##X	.	.	16a#
16G#	.	.	16b#
16E#	.	.	16g#
16C#	16g#]	.	[4gg#
16D#	16b#	.	.
16E#	16cc#	.	.
16C#	16g#	.	.
=18	=18	=18	=18
8FF##	8a#	1ryy	16gg#]
.	.	.	16c#
16F##X	8r	.	16d#
16E#	.	.	16c#
16F##	8r	.	[4a#
16G#	.	.	.
16A#	8c#	.	.
16F##	.	.	.
16D##	[4f##	.	16a#]
16E#	.	.	16g#
16F##X	.	.	16a#
16D##	.	.	16f##X
16BB#	16f##]	.	[4ff##X
16C##	16a#	.	.
16D##X	16b#	.	.
16BB#	16f##	.	.
=19	=19	=19	=19
16EE#	4g#	1ryy	16ff##]
16FF##	.	.	16dd##
16GG#	.	.	16ee#
16AA#	.	.	16cc#
16BB#	8r	.	2a#
16C##	.	.	.
16D##	8B#	.	.
16BB#	.	.	.
16E#	16c#	.	.
16D#X	16B#	.	.
16C#X	16A#	.	.
16D#	16B#	.	.
16E#	8g#	.	[4g#
16D#	.	.	.
16C#	8e#	.	.
16BB#	.	.	.
=20	=20	=20	=20
[4C#	8B#	1ryy	4g#]
.	16A#	.	.
.	16G#	.	.
16C#]	8A#	.	[4f##
16BB#	.	.	.
16AA#	8f##X	.	.
16C#	.	.	.
16BB#	8G#	.	8f##]
16AA#	.	.	.
16GG#	8e#	.	8e#
16BB#	.	.	.
16AA#	8F##X	.	8d##
16GG#	.	.	.
16AA#	8d##X	.	8f##X
16FF##	.	.	.
=21	=21	=21	=21
*	*staff:1	*	*
*	*clefF4	*	*
8GG#	4.E#	1ryy	16b#
.	.	.	16a#
8C#	.	.	16g#
.	.	.	16b#
8FF##	.	.	16a#
.	.	.	16g#
8BB#	8D##	.	16f##
.	.	.	16a#
8EE#	8E#	.	16g#
.	.	.	16e#
8AA#	8D##X	.	16cc#
.	.	.	16a#
8GG#	8E#	.	16b#
.	.	.	16g#
8C#	8A#	.	16ff#
.	.	.	16dd##
=22	=22	=22	=22
2BB#	8G#	1ryy	16dd##
.	.	.	16ee#
.	16F##	.	16aa##
.	16E#	.	16bb#
.	8F##	.	8.dd##
.	8A#	.	.
.	.	.	16ee#
4E#	16G#	.	4ee#
.	16A#	.	.
.	16B#	.	.
.	16G#	.	.
4r	16E#	.	8r
.	16F#X	.	.
.	16G#	.	8ee#
.	16E#	.	.
=23	=23	=23	=23
1r	16C##	1ryy	16bn
.	16D#	.	16a#
.	16E#	.	16g#
.	16C##	.	16a#
.	16AA#	.	8ee#
.	16C##	.	.
.	16E#	.	8cc##
.	16A#	.	.
.	16D#	.	8g#
.	16F#	.	.
.	16A#	.	16f#
.	16c##X	.	16e#
.	16d#	.	8f#
.	16e#	.	.
.	16f#	.	8dd#
.	16d#	.	.
=24	=24	=24	=24
*	*staff:14	*	*
*	*clefG2	*	*
4r	16B#	1ryy	16an
.	16c#	.	16g#
.	16d#	.	16f#
.	16B#	.	16g#
16r	[4G#	.	8dd#
16GG#	.	.	.
16AA#	.	.	8b#
16BB#	.	.	.
[4C#	16G#]	.	8f#
.	16G#	.	.
.	16A#	.	16e#
.	16B#	.	16d#
16C#]	8c#	.	16e#
16D#	.	.	16g#
16E#	8r	.	16cc#
16F##	.	.	16dd#
=25	=25	=25	=25
16G#	4r	1ryy	16ee#
16F##	.	.	16dd#
16E#	.	.	16cc#
16F##	.	.	16dd#
16G#	2b#	.	8bb#
16F##X	.	.	.
16E#	.	.	8gg#
16D#	.	.	.
[4E#	.	.	8dd#
.	.	.	16cc#
.	.	.	16b#
16E#]	[4a#	.	8cc#
16D#	.	.	.
16C#	.	.	8aa#
16E#	.	.	.
=26	=26	=26	=26
16D#	8a#]	1ryy	8b#
16C#	.	.	.
16BB#	8g#	.	8gg#
16D#	.	.	.
16C#	8f##	.	8a#
16BB#	.	.	.
16AA#	8a#	.	8ff##X
16C#	.	.	.
8BB#	16d#	.	16g#
.	16r	.	16d#
8D#	8r	.	16e#
.	.	.	16f##X
[4F#	8r	.	16g#
.	.	.	16a#
.	8G#	.	16b#
.	.	.	16g#
=27	=27	=27	=27
4F#]	16A#	1ryy	16cc#
.	16G#	.	16b#
.	16F#	.	16a#
.	16G#	.	16b#
2E#	8e#	.	16cc#
.	.	.	16b#
.	8c#	.	16a#
.	.	.	16g#
.	8G#	.	[4a#
.	16F#	.	.
.	16E#	.	.
[4D#	8F#	.	16a#]
.	.	.	16g#
.	8d#	.	16f#
.	.	.	16a#
=28	=28	=28	=28
8D#]	8E#	1ryy	16g#
.	.	.	16f#
8C#	8c#	.	16e#
.	.	.	16g#
8D#	8D#	.	16f#
.	.	.	16e#
8GG#	8B#	.	16d#
.	.	.	16f#
16C#	4c#	.	8e#
16D#	.	.	.
16E#	.	.	8g#
16F#	.	.	.
16E#	8r	.	4cc#
16D#	.	.	.
16C#	16gg#	.	.
16E#	16ee#	.	.
=29	=29	=29	=29
16A#	4cc#	1ryy	8r
16G#	.	.	.
16F##	.	.	16een
16A#	.	.	16cc#
16c#	8r	.	4a#
16Bn	.	.	.
16A#	16cc#	.	.
16c#	16a#	.	.
8en	4f##	.	8r
16d#	.	.	16a#
16c#	.	.	16cc#
16Bn	8r	.	4een
16A#	.	.	.
16G#	8cc#	.	.
16F##X	.	.	.
=30	=30	=30	=30
16G#	4bn	1ryy	8dd#
16Bn	.	.	.
16A#	.	.	8gg#
16G#	.	.	.
16F##	4a#	.	8cc#
16E#	.	.	.
16D#	.	.	8ff##
16C#	.	.	.
16BBn	8g#	.	8g#
16C#	.	.	.
16D#	8r	.	16gg#
16BB	.	.	16ff##X
8GG#	4r	.	16gg#
.	.	.	16aa#
16G#	.	.	16bbn
16E#	.	.	16gg#
=31	=31	=31	=31
*	*clefF4	*	*
8C#	8r	1ryy	16ee#
.	.	.	16ff#
8r	16Bn	.	16gg#
.	16G#	.	16ee#
8r	8E#	.	16cc#
.	.	.	16dd#
16C#	8r	.	16ee#
16AA#	.	.	16cc#
8FF#	8r	.	16a#
.	.	.	16b#
8r	16A#	.	16cc#
.	16F#	.	16a#
8r	8D#	.	16ff#
.	.	.	16gg#
16F#	8r	.	16aa#
16D#	.	.	16ff#
=32	=32	=32	=32
8BB#	8r	1ryy	16dd#
.	.	.	16ee#
8r	16A#	.	16ff#
.	16F#	.	16dd#
8r	8D#	.	16b#
.	.	.	16cc#
16BB#	8r	.	16dd#
16GG#	.	.	16b#
8EE#	8r	.	16g#
.	.	.	16a#
8r	16G#	.	16b#
.	16E#	.	16g#
8r	8C##	.	16ee#
.	.	.	16ff#
16E#	8r	.	16gg#
16C##X	.	.	16ee#
=33	=33	=33	=33
8AA#	8r	1ryy	16cc##
.	.	.	16dd#
8r	16G#	.	16ee#
.	16E#	.	16cc##
8r	8C##	.	16a#
.	.	.	16b#
16AA#	8r	.	16cc##X
16FF#	.	.	16a#
8DD#	8r	.	16f#
.	.	.	16g#
8r	16F#	.	16a#
.	16D#	.	16f#
8r	8BB#	.	16dd#
.	.	.	16ee#
16D#	8r	.	16ff#
16BB#	.	.	16dd#
=34	=34	=34	=34
8GG#	8r	1ryy	16b#
.	.	.	16cc#
8r	16F#	.	16dd#
.	16D#	.	16b#
8r	8BB#	.	16g#
.	.	.	16a#
16GG#	8r	.	16b#
16EE#	.	.	16g#
4CC#	2r	.	16e#
.	.	.	16f#
.	.	.	16g#
.	.	.	16e#
4r	.	.	16c#
.	.	.	16e#
.	.	.	16g#
.	.	.	16a#
=35	=35	=35	=35
8r	1ryy	1ryy	16bn
.	.	.	16a#
16Bn	.	.	16g#
16C#	.	.	16a#
16A#	.	.	8ff#
16C#	.	.	.
16G#	.	.	8cc#
16C#	.	.	.
16F#	.	.	8a#
16C#	.	.	.
16E#	.	.	16g#
16D#	.	.	16f#
8E#	.	.	16g#
.	.	.	16c#
8GG#	.	.	16e#
.	.	.	16g#
=36	=36	=36	=36
8r	1ryy	1ryy	16a#
.	.	.	16g#
16A#	.	.	16f#
16C#	.	.	16g#
16G#	.	.	8ee#
16C#	.	.	.
16F#	.	.	8cc#
16C#	.	.	.
16E#	.	.	8g#
16C#	.	.	.
16D#	.	.	16f#
16C#	.	.	16e#
8D#	.	.	16f#
.	.	.	16B#
8GG#	.	.	16d#
.	.	.	16f#
=37	=37	=37	=37
8r	1ryy	1ryy	16g#
.	.	.	16f#
16G#	.	.	16e#
16GG#	.	.	16f#
16F#	.	.	8dd#
16GG#	.	.	.
16E#	.	.	8b#
16GG#	.	.	.
16D#	.	.	8f#
16GG#	.	.	.
16C#	.	.	16e#
16BB#	.	.	16d#
16C#	.	.	16e#
16GG#	.	.	16g#
16E#	.	.	16a#
16D#	.	.	16b#
=38	=38	=38	=38
16E#	1ryy	1ryy	16cc#
16GG#	.	.	16dd#
16G#	.	.	16ee#
16F#	.	.	16dd#
16G#	.	.	16ff#
16GG#	.	.	16ee#
16A#	.	.	16dd#
16GG#	.	.	16cc#
16B#	.	.	[2gg#W
16c#	.	.	.
16d#	.	.	.
16B#	.	.	.
16G#	.	.	.
16B#	.	.	.
16d#	.	.	.
16e#	.	.	.
=39	=39	=39	=39
*clefG2	*	*	*
16f#	1ryy	1ryy	16gg#]
16e#	.	.	16gg#
16d#	.	.	16ff#
16e#	.	.	16gg#
8cc#	.	.	16ee#
.	.	.	16gg#
8g#	.	.	16dd#
.	.	.	16gg#
8e#	.	.	16cc#
.	.	.	16gg#
16d#	.	.	16b#
16c#	.	.	16a#
16d#	.	.	16b#
16G#	.	.	16dd#
16B#	.	.	16ee#
16d#	.	.	16ff#
=40	=40	=40	=40
16e#	1ryy	1ryy	16gg#
16d#	.	.	16ff#
16c#	.	.	16ee#
16d#	.	.	16gg#
8b#	.	.	16dd#
.	.	.	16gg#
8g#	.	.	16cc#
.	.	.	16gg#
8d#	.	.	16b#
.	.	.	16gg#
16c#	.	.	16a#
16B#	.	.	16g#
16c#	.	.	16a#
16G#	.	.	16cc#
16B#	.	.	16dd#
16c#	.	.	16ee#
=41	=41	=41	=41
16d#	1ryy	1ryy	16ff#
16c#	.	.	16ee#
16B#	.	.	16dd#
16c#	.	.	16ee#
8a#	.	.	16cc#
.	.	.	16dd#
8f##	.	.	16b#
.	.	.	16dd#
8c#	.	.	16a#
.	.	.	16dd#
16B#	.	.	16g#
16A#	.	.	16f##X
16B#	.	.	16g#
16G#	.	.	16b#
16A#	.	.	16cc#
16B#	.	.	16dd#
=42	=42	=42	=42
*clefF4	*clefG2	*	*
16c#	1ryy	1ryy	16ee#
16d#	.	.	16ff#
16e#	.	.	16gg#
16d#	.	.	16aa#
16f#	.	.	8b#
16e#	.	.	.
16d#	.	.	8g#
16c#	.	.	.
8f#	.	.	16a#
.	.	.	16g#
16A#	.	.	16f#
16B#	.	.	16g#
16c#	.	.	8ee#
16B#	.	.	.
16A#	.	.	8cc#
16G#	.	.	.
=43	=43	=43	=43
[4A#	1ryy	1ryy	8g#
.	.	.	16f#
.	.	.	16e#
16A#]	.	.	8f#
16G#	.	.	.
16F#	.	.	8dd#
16A#	.	.	.
16G#	.	.	8e#
16F#	.	.	.
16E#	.	.	8cc#
16G#	.	.	.
16F#	.	.	8d#
16E#	.	.	.
16F#	.	.	8b#
16D#	.	.	.
=44	=44	=44	=44
8.E#	4r	1ryy	8c#
.	.	.	16cc#
16G#	.	.	16b#
16A#	8r	.	16cc#
16B#	.	.	16dd#
[8c#	16c#	.	16ee#
.	16d#	.	16ff#
4c#]	16e#	.	16gg#
.	16d#	.	16ff#
.	16c#	.	16ee#
.	16d#	.	16ff#
[4B#	8b#	.	16gg#
.	.	.	16ff#
.	8g#	.	16ee#
.	.	.	16dd#
=45	=45	=45	=45
4B#]	8d#	1ryy	[4ee#
.	16c#	.	.
.	16B#	.	.
[4A#	8c#	.	16ee#]
.	.	.	16dd#
.	8a#	.	16cc#
.	.	.	16ee#
8A#]	8B#	.	16dd#
.	.	.	16cc#
8G#	8g#	.	16b#
.	.	.	16dd#
8A#	8A#	.	16cc#
.	.	.	16b#
8D#	8f##	.	16cc#
.	.	.	16a#
=46	=46	=46	=46
4G#	8G#	1ryy	8b#
.	16g#	.	8dd#
.	16f#	.	.
8r	16g#	.	2ff#
.	16a#	.	.
8G#	16b#	.	.
.	16g#	.	.
16A#	16cc#	.	.
16G#	16b#	.	.
16F#	16a#	.	.
16G#	16b#	.	.
8e#	16cc#	.	[4ee#
.	16b#	.	.
8c#	16a#	.	.
.	16g#	.	.
=47	=47	=47	=47
8G#	[4a#	1ryy	4ee#]
16F#	.	.	.
16E#	.	.	.
8F#	16a#]	.	[4dd#
.	16g#	.	.
8d#	16f#	.	.
.	16a#	.	.
8E#	16g#	.	8dd#]
.	16f#	.	.
8c#	16e#	.	8cc#
.	16g#	.	.
8D#	16f#	.	8b#
.	16e#	.	.
8B#	16f#	.	[8dd#
.	16d#	.	.
=48	=48	=48	=48
16C#	[2e#	1ryy	8dd#]
16GG#	.	.	.
16C#	.	.	8g#
16D#	.	.	.
16E#	.	.	8cc#
16F#	.	.	.
16G#	.	.	8bn
16E#	.	.	.
16F#	8e#]	.	[2a#
16FF#	.	.	.
16F#	8c#	.	.
16E#	.	.	.
16F#	8f#	.	.
16G#	.	.	.
16A#	8e#	.	.
16F#	.	.	.
=49	=49	=49	=49
16D#	4.f#	1ryy	8a#]
16E#	.	.	.
16F#	.	.	16a#
16D#	.	.	16f#
16BB#	.	.	[4d#
16C#	.	.	.
16D#	16f#	.	.
16BB#	16d#	.	.
8EE#	4G#	.	8d#]
16E#	.	.	8d#
16D#	.	.	.
16E#	8r	.	[4g#
16F#	.	.	.
16G#	8B#	.	.
16E#	.	.	.
=50	=50	=50	=50
16C##	4.e#	1ryy	8g#]
16D#	.	.	.
16E#	.	.	16g#
16C##	.	.	16e#
16AA#	.	.	[4c##
16BB#	.	.	.
16C##X	16e#	.	.
16AA#	16c##X	.	.
8DD#	4F#	.	8c##]
16D#	.	.	8A#
16C##X	.	.	.
16D#	8r	.	[4f#
16E#	.	.	.
16F#	8A#	.	.
16D#	.	.	.
=51	=51	=51	=51
*	*staff:3	*	*
*	*clefF4	*	*
16BB#	[4d#	1ryy	16f#]
16C#	.	.	16e#
16D#	.	.	16f#
16BB#	.	.	16d#
16GG#	16d#]	.	[4dd#
16AA#	16f#	.	.
16BB#	16g#	.	.
16GG#	16d#	.	.
8CC#	4e#	.	16dd#]
.	.	.	16cc#
16C#	.	.	16b#
16D#	.	.	16dd#
8E#	8r	.	16cc#
.	.	.	16g#
8C#	[8c#	.	16a#
.	.	.	16bn
=52	=52	=52	=52
4F#	16c#]	1ryy	16a#
.	16B#	.	16g#
.	16A#	.	16f#
.	16B#	.	16g#
4E#	16c#	.	8ee#
.	16B#	.	.
.	16A#	.	8cc#
.	16G#	.	.
8D#	[4A#	.	8g#
8C#	.	.	16f#
.	.	.	16e#
4BB#	16A#]	.	8f#
.	16G#	.	.
.	16F#	.	8dd#
.	16A#	.	.
=53	=53	=53	=53
4C#	16G#	1ryy	8e#
.	16F#	.	.
.	16E#	.	8cc#
.	16G#	.	.
4GG#	16F#	.	8d#
.	16E#	.	.
.	16D#	.	8b#
.	16F#	.	.
8AA#	16E#	.	16c#
.	16G#	.	16e#
8r	16A#	.	16f#
.	16B#	.	16g#
4r	16c#	.	16a#
.	16B#	.	16b#
.	16A#	.	16cc#
.	16G#	.	16dd#
=54	=54	=54	=54
4r	16F##	1ryy	16een
.	16G#	.	16dd#
.	16A#	.	16cc#
.	16F##	.	16dd#
16r	[4D#	.	16een
16C#	.	.	16ff##
16BB#	.	.	16gg#
16AA#	.	.	16aa#
4GG#	16D#]	.	16cc#
.	16D#	.	16b#
.	16E#	.	16a#
.	16F#X	.	16g#
4r	16G#	.	8dd#
.	16A#	.	.
.	16B#	.	8f#
.	16G#	.	.
=55	=55	=55	=55
*	*staff:2	*staff:2	*
*	*clefG2	*clefG2	*
*	*	*k[f#c#g#d#a#e#b#]	*
8r	4c#	4ryy	8e#
8EE#	.	.	8c# 8g# 8cc#
8FF#	4d#	8f# 8a#	8d#
8GG#	.	8f# 8g#	8b#
2CC#	2c#;y	2e#;y 2g#;y	2cc#;
==	==	==	==
*-	*-	*-	*-
!!!AFR:  fugue
!!!EFL:  06/96
!!!END:  1994/01/08/
!!!VID:  1617017834 Bach, BWV 848-02
!!!AST:  Baroque
!!!OCY:  Deutschland
!!!ODT:  1722///
!!!PDT:  1801///
!!!EED:  Walter Hewlett
!!!ENC:  Walter Hewlett
!!!YOR:  Bach Gesellschaft Edition xiv
!!!AFT:  enhanced SCORE
!!!RDT:  2011/10/07/ by Andreas Kornstaedt using massScr2hmd
!!!SCA1: Thematisch-systematisches Verzeichnis der musikalischen Werke 
!!!SCA2: Johann Sebastian Bach: Bach-Werke-Verzeichnis (Schmieder)
!!!YEC1: Copyright 1994, 2000 Center for Computer Assisted Research 
!!!YEC2: in the Humanities
!!!YEM1: Rights to all derivative editions reserved.
!!!YEM2: Refer to licensing agreement for further details.
!!!YEN:  United States of America
!!!ref:  @{OTL}, @{SCT}
!!muse2ps: T^@{OTL} @{ONM} in @{OKY}^C^J.S. Bach\n@{SCT}-@{OMV}^
!!muse2ps: u^@{OPR@ENG}, @{OVM@ENG}^j
